X:944
T:Xota
T:Jota
R:Xota
C:Tradicional
S:Msica Tradicional Asturiana, (C) Tello & Tito. Asturies, 2001.
S:http://pagina.de/MusTradAst <telloytito@asturies.org>
A:Asturies
Z:Danzas y Bailes I
M:3/8
L:1/8
Q:3/8=69
K:A
|: e3-|e3/2 d/c/B/|A3-|A3/2 B/c/d/ :|e3-|e2 a|
|z2 e|
|e c/e/c/e/|e c/e/c/e/|e c/e/c/e/|dBd|
|d B/d/B/d/|d B/d/B/d/|e e/d/c/B/|AA c/B/|
|c/d/e/d/c/B/|AA c/B/|c/d/e/d/c/d/|B3-|
|B G/A/G/A/|B G/A/G/A/|Bag|f e/d/c/B/|A3|
|z2 e|
|: f2 e|cee|a2 g|f2 e|d2 c|Bcd|f2 e|c2 e :|
|f2 e|cee|a2 g|f2 e|d2 c|Bcd|f2 e|c2 e|
|e ^d/e/f/e/|c2 e|e ^d/e/f/e/|d2 d|
|d c/d/e/d/|B2 d|d c/d/e/d/|c2 e|
|e ^d/e/f/e/|
